_includes/icons/color-source-code.svg

<svg fill="#666" height="50" viewBox="0 0 48 48" width="50" xmlns="http://www.w3.org/2000/svg"><path d="m36 34-3-2.5 6.800781-7.5-6.800781-7.5 3-2.5 9 10z" fill="#3f51b5"/><path d="m13 34-9-10 9-10 3 2.5-6.898437 7.5 6.898437 7.5z" fill="#3f51b5"/><path d="m21 39-3.800781-1.300781 9.800781-28.699219 3.800781 1.300781z" fill="#2196f3"/></svg>

<svg xmlns="http://www.w3.org/2000/svg" viewBox="0 0 48 48" width="50" height="50" fill="#666"><path d="M 36 34 L 33 31.5 L 39.800781 24 L 33 16.5 L 36 14 L 45 24 Z" fill="#3f51b5"/><path d="M 13 34 L 4 24 L 13 14 L 16 16.5 L 9.101563 24 L 16 31.5 Z" fill="#3f51b5"/><path d="M 21 39 L 17.199219 37.699219 L 27 9 L 30.800781 10.300781 Z" fill="#2196f3"/></svg>
